X:10207
%7978
T:Jig of Slurs, The
C:GS MacLennan
R:jig
Z:id:hn-jig-94
M:6/8
K:Cmaj
Gcc cBc|Acc Gcc|Acc Gcc|Add dcA|Gcc cBc|Acc Gcc|Acc Bcd|ecc cBA:|
|:G2e ede|ge
